packages/ffe-icons/icons/open/400/sm/picture_in_picture_medium.svg

<svg xmlns="http://www.w3.org/2000/svg" height="20" viewBox="0 -960 960 960" width="20"><path d="M396.286-336Q381-336 370.5-346.338 360-356.677 360-371.96v-215.757Q360-603 370.341-613.5q10.341-10.5 25.627-10.5h287.746Q699-624 709.5-613.662 720-603.323 720-588.04v215.757Q720-357 709.659-346.5 699.318-336 684.032-336H396.286ZM132-192q-15.3 0-25.65-10.289Q96-212.579 96-227.789 96-243 106.35-253.5 116.7-264 132-264h660v-467.709Q792-747 802.289-757.5q10.29-10.5 25.5-10.5Q843-768 853.5-757.644 864-747.288 864-731.98v468.263Q864-234 842.85-213T792-192H132Z"/></svg>

<svg xmlns="http://www.w3.org/2000/svg" height="20" viewBox="0 -960 960 960" width="20"><path d="M396.29-336q-15.29 0-25.79-10.34T360-371.96v-215.76q0-15.28 10.34-25.78 10.34-10.5 25.63-10.5h287.74q15.29 0 25.79 10.34t10.5 25.62v215.76q0 15.28-10.34 25.78-10.34 10.5-25.63 10.5H396.29ZM132-192q-15.3 0-25.65-10.29Q96-212.58 96-227.79t10.35-25.71Q116.7-264 132-264h660v-467.71q0-15.29 10.29-25.79t25.5-10.5q15.21 0 25.71 10.36 10.5 10.35 10.5 25.66v468.26Q864-234 842.85-213T792-192H132Z"/></svg>
